X: 1
T: Paddy Kelly's
M: 4/4
L: 1/8
R: reel
K: Amix
|:A2 eA fAeA|G2 dG eGdG|EA A2 fAeA|GA (3Bcd gdBG|
A2 eA fAeA|G2 dG eGdG|AGEF GA (3Bcd|1gdBG AEF^G:|2gdBG A3 g||
|:eaa^g a3 b|c'ab^g agec|d2 Bd g3 a|bgag edBd|
eaa^g a3 b|c'ab^g agef|g3 b afge|1 dBGB A3 ^g:|2 dBGB AEF^G||
